X:254
T:The Soldiers Joy 
O:No 254 Wm Clarke of Feltwell 
N:spread over Pages 126 & 7
M:4/4
L:1/8
K:C
EF| GECE GEDF| C2 c4 BA| GECE GECE| F2 D4 EF|
 GECE GECE| C2 c4 ef| gece fdBd| c2 c4:| |
:d2| edef egfe| dcBc defd| edef egfe| dcBA G2 G2| edef egfe| dcBc defe|gece fdBd| c2 c4:||

